X: 1
T: Hull's Reel
M: 4/4
L: 1/8
Z: 2019 John Chambers <jc:trillian.mit.edu>
S: handwritten MS from Barbara McOwen in the BSFC collection
R: reel
K: E
c |\
"E"BE~E2 B2"(A)"Ac | "E"BE~E2 "A"cBce | "E"BE~E2 B2AB | "A"cBce "B7"fefg || "E"BE~E2 B2"(A)"Ac |
"E"BE~E2 "A"cBce | "F#m"fgfe c2Bc | "B7"efeB "E"cee :: f | "E"gB~B2 g2fg | "C#m"fc~c2 c2Bc |
"F#m"fc~c2 c2fc | "B7"eB~B2 B2ef || "E"gB~B2 g2fg | "C#m"fc~c2 c2Bc | "F#m"fgfe c2Bc | "B7"efeB "E"cee :|
